X:14
T:Branle double de Poitou 1
M:3/2
L:1/2
K:G
|: c>d c | A d2 | B2 B | G3 | c>d c | A d2 | B2 B | G3 :|
|: A2 B | A2 G | A2 B | A2 d | c A c | B>A G | G F2 | G3 :|
